X:1
T: Cadgers of the Canongate
C:
R:Strathspey
Q: 128
K:A
M:4/4
L:1/16
|:B2|A3c A3c e2fg a3f|e3c a3c BBB2 B3c|A3c A3c e2fg a3f|f3d e3g aAA2 A2B2|
A3c A3c e2fg a3f|e3c a3c BBB2 B3c|A3c A3c e2fg a3f|f3d e3g aAA2 A2a2|
c'3b a3g a3f e3c|A3c a3c BBB2 B3a|c'3b a3g a3f e3c|f3d e3g aAA2 A2a2|
c'3b a3g a3f e3c|A3c a3c BBB2 B3a|((3c'2b2a2) ((3b2a2g2) ((3a2g2f2) ((3f2e2c2)|f3d e3g aAA2 A2:|
